geofa_plugin/geofa_symboler/Friluftsliv, punkt/FORMIDLING AF FORTIDSMINDER.svg

<svg xmlns="http://www.w3.org/2000/svg" width="5.5mm" height="5.5mm" viewBox="0 0 15.591 15.591">
  <rect width="15.591" height="15.591" rx="7.795" fill="#746d51"/>
  <g>
    <path d="M4.455,7.248l6.513.015a1.22,1.22,0,0,0,1.2-1.282l-.021-.627a1.211,1.211,0,0,0-1.305-1.189l-6.492.611a1.241,1.241,0,0,0,.106,2.472Z" fill="#fff"/>
    <path d="M13.009,9.86l-.746-1.287a1.132,1.132,0,0,0-.982-.55H10.92A1.08,1.08,0,0,0,9.815,9.257l.224,1.287a1.105,1.105,0,0,0,1.106.887h.882A1.062,1.062,0,0,0,13.009,9.86Z" fill="#fff"/>
    <path d="M4.889,8.023H3.948a.831.831,0,0,0-.632.3L2.107,9.743a.983.983,0,0,0,.6,1.626l1.512.062a.864.864,0,0,0,.817-.548L5.674,9.4A.962.962,0,0,0,4.889,8.023Z" fill="#fff"/>
    <path d="M8.084,8.158H7.65a1.022,1.022,0,0,0-1,.949l-.1,1.189a1.028,1.028,0,0,0,1,1.135H7.98a1.021,1.021,0,0,0,1-.948l.1-1.189A1.029,1.029,0,0,0,8.084,8.158Z" fill="#fff"/>
  </g>
</svg>

<?xml version="1.0" encoding="UTF-8"?>
<svg xmlns="http://www.w3.org/2000/svg" viewBox="0 0 15.59 15.59">
  <defs>
    <style>
      .cls-1 {
        fill: #071f39;
      }

      .cls-1, .cls-2 {
        stroke-width: 0px;
      }

      .cls-2 {
        fill: #fff;
      }
    </style>
  </defs>
  <g id="Cirkel">
    <rect class="cls-1" x="0" y="0" width="15.59" height="15.59" rx="7.8" ry="7.8"/>
  </g>
  <g id="ICONS">
    <g>
      <path class="cls-2" d="M4.45,7.25l6.51.02c.68,0,1.22-.58,1.2-1.28l-.02-.63c-.02-.71-.62-1.25-1.3-1.19l-6.49.61c-.63.06-1.11.62-1.09,1.28.02.67.55,1.19,1.19,1.19Z"/>
      <path class="cls-2" d="M13.01,9.86l-.75-1.29c-.2-.34-.57-.55-.98-.55h-.36c-.69,0-1.22.59-1.11,1.23l.22,1.29c.09.51.56.89,1.11.89h.88c.85,0,1.39-.86.98-1.57Z"/>
      <path class="cls-2" d="M4.89,8.02h-.94c-.24,0-.47.11-.63.3l-1.21,1.42c-.51.6-.15,1.6.6,1.63l1.51.06c.35.01.67-.2.82-.55l.64-1.48c.28-.64-.15-1.38-.79-1.38Z"/>
      <path class="cls-2" d="M8.08,8.16h-.43c-.52,0-.96.41-1,.95l-.1,1.19c-.05.61.41,1.14,1,1.14h.43c.52,0,.96-.41,1-.95l.1-1.19c.05-.61-.41-1.14-1-1.14Z"/>
    </g>
  </g>
</svg>
